!!!COM: Beethoven
!!!OTL: Acht Variationen uber "Une fievre brulante" aus "Richard Coeur de Lion" von A.E.M. Gretry
!!!Variation: Variation 7 c
**function	**harm	**kern	**kern
*	*	*clefF4	*clefG2
*	*	*k[]	*k[]
*M3/4	*M3/4	*M3/4	*M3/4
*C:	*C:	*C:	*C:
4T	4Vb	4r	4B 4d 4g
=241	=241	=241	=241
2.T	2.V	8r	2B 2d 2g
.	.	(8F#L	.
.	.	8G)	.
.	.	8G'	.
.	.	8G'	4B 4d 4g
.	.	8G'J	.
=242	=242	=242	=242
2.T	2.iii	8r	2B 2e 2g
.	.	(8D#L	.
.	.	8E)	.
.	.	8E'	.
.	.	8E'	4B 4e 4g
.	.	8E'J	.
*	*	*clefG2	*
=243	=243	=243	=243
2.T	2.V7/ii	8r	2.A 2.e 2.g
.	.	(8b#L	.
.	.	8cc#)	.
.	.	8cc#'	.
.	.	8cc#'	.
.	.	8cc#'J	.
=244	=244	=244	=244
2.T	2.ii	8r	2A 2d 2f
.	.	(8cc#L	.
.	.	8dd)	.
.	.	8dd'	.
*	*	*	*clefF4
.	.	8dd'	4A 4d 4f
.	.	8dd'J	.
*	*	*clefF4	*
=245	=245	=245	=245
2.T	2.ii	8r	2A 2d 2f
.	.	(8C#L	.
.	.	8D)	.
.	.	8D'	.
.	.	8D'	4A 4d 4f
.	.	8D'J	.
=246	=246	=246	=246
2.T	2.V7b	8r	2G 2d 2f
.	.	(8AA#L	.
.	.	8BB)	.
.	.	8BB'	.
.	.	8BB'	4G 4d 4f
.	.	8BB'J	.
=247	=247	=247	=247
2.T	2.I	8r	2G 2c 2e
.	.	(8BBL	.
.	.	8C)	.
.	.	8C'	.
.	.	8C'	4E 4G 4c
.	.	8C'J	.
=248	=248	=248	=248
2D	2V	8r	4G 4B 4d
.	.	(8GGL	.
.	.	8FF#	4r
.	.	8FF	.
*-	*-	*-	*-
